X: 1
T: The Holy Land
R: reel
M: 4/4
L: 1/8
K: Dmaj
|:A|"G"B4 "A"A2Bc|"D"dF F2DFA=c|"G"BGGF GABd|"A7"eaag "D"fdd:|
e|"D"f2df dfaf|"Em"gfed "A7"cdeg|"D"f2df dfaf|"A7"gfeg "D"fdde|
"D"f2df dfaf|"Em"gfed "A"cdef|"D"dfaf "G"g2bg|"A"afeg "D"fdd||


Tune 616	Setting 13634

